images/30779.svg

<?xml version="1.0" encoding="UTF-8"?>
<svg xmlns="http://www.w3.org/2000/svg" xmlns:xlink="http://www.w3.org/1999/xlink" width="300pt" height="300pt" viewBox="0 0 300 300" version="1.1">
<defs>
<g>
<symbol overflow="visible" id="glyph0-0">
<path style="stroke:none;" d="M 0.546875 1.9375 L 0.546875 -7.75 L 6.046875 -7.75 L 6.046875 1.9375 Z M 1.171875 1.328125 L 5.4375 1.328125 L 5.4375 -7.140625 L 1.171875 -7.140625 Z M 1.171875 1.328125 "/>
</symbol>
<symbol overflow="visible" id="glyph0-1">
<path style="stroke:none;" d="M 7.078125 -7.40625 L 7.078125 -6.25 C 6.710938 -6.59375 6.320312 -6.847656 5.90625 -7.015625 C 5.5 -7.179688 5.0625 -7.265625 4.59375 -7.265625 C 3.675781 -7.265625 2.972656 -6.984375 2.484375 -6.421875 C 2.003906 -5.867188 1.765625 -5.0625 1.765625 -4 C 1.765625 -2.945312 2.003906 -2.140625 2.484375 -1.578125 C 2.972656 -1.015625 3.675781 -0.734375 4.59375 -0.734375 C 5.0625 -0.734375 5.5 -0.816406 5.90625 -0.984375 C 6.320312 -1.148438 6.710938 -1.40625 7.078125 -1.75 L 7.078125 -0.625 C 6.703125 -0.363281 6.300781 -0.164062 5.875 -0.03125 C 5.457031 0.09375 5.007812 0.15625 4.53125 0.15625 C 3.320312 0.15625 2.367188 -0.210938 1.671875 -0.953125 C 0.972656 -1.703125 0.625 -2.71875 0.625 -4 C 0.625 -5.289062 0.972656 -6.304688 1.671875 -7.046875 C 2.367188 -7.796875 3.320312 -8.171875 4.53125 -8.171875 C 5.007812 -8.171875 5.460938 -8.101562 5.890625 -7.96875 C 6.316406 -7.84375 6.710938 -7.65625 7.078125 -7.40625 Z M 7.078125 -7.40625 "/>
</symbol>
<symbol overflow="visible" id="glyph0-2">
<path style="stroke:none;" d="M 1.03125 -8.359375 L 2.03125 -8.359375 L 2.03125 0 L 1.03125 0 Z M 1.03125 -8.359375 "/>
</symbol>
<symbol overflow="visible" id="glyph0-3">
<path style="stroke:none;" d="M 4.328125 -7.28125 C 3.546875 -7.28125 2.921875 -6.984375 2.453125 -6.390625 C 1.992188 -5.804688 1.765625 -5.007812 1.765625 -4 C 1.765625 -2.988281 1.992188 -2.1875 2.453125 -1.59375 C 2.921875 -1.007812 3.546875 -0.71875 4.328125 -0.71875 C 5.117188 -0.71875 5.742188 -1.007812 6.203125 -1.59375 C 6.660156 -2.1875 6.890625 -2.988281 6.890625 -4 C 6.890625 -5.007812 6.660156 -5.804688 6.203125 -6.390625 C 5.742188 -6.984375 5.117188 -7.28125 4.328125 -7.28125 Z M 4.328125 -8.171875 C 5.453125 -8.171875 6.351562 -7.789062 7.03125 -7.03125 C 7.707031 -6.28125 8.046875 -5.269531 8.046875 -4 C 8.046875 -2.738281 7.707031 -1.726562 7.03125 -0.96875 C 6.351562 -0.21875 5.453125 0.15625 4.328125 0.15625 C 3.203125 0.15625 2.300781 -0.21875 1.625 -0.96875 C 0.957031 -1.71875 0.625 -2.726562 0.625 -4 C 0.625 -5.269531 0.957031 -6.28125 1.625 -7.03125 C 2.300781 -7.789062 3.203125 -8.171875 4.328125 -8.171875 Z M 4.328125 -8.171875 "/>
</symbol>
<symbol overflow="visible" id="glyph0-4">
<path style="stroke:none;" d="M 1.078125 -8.015625 L 2.171875 -8.015625 L 2.171875 -4.734375 L 6.109375 -4.734375 L 6.109375 -8.015625 L 7.1875 -8.015625 L 7.1875 0 L 6.109375 0 L 6.109375 -3.8125 L 2.171875 -3.8125 L 2.171875 0 L 1.078125 0 Z M 1.078125 -8.015625 "/>
</symbol>
<symbol overflow="visible" id="glyph0-5">
<path style="stroke:none;" d="M 1.078125 -8.015625 L 2.546875 -8.015625 L 6.09375 -1.3125 L 6.09375 -8.015625 L 7.15625 -8.015625 L 7.15625 0 L 5.6875 0 L 2.125 -6.703125 L 2.125 0 L 1.078125 0 Z M 1.078125 -8.015625 "/>
</symbol>
</g>
</defs>
<g id="surface27473">
<rect x="0" y="0" width="300" height="300" style="fill:rgb(100%,100%,100%);fill-opacity:1;stroke:none;"/>
<path style="fill:none;stroke-width:1.2;stroke-linecap:butt;stroke-linejoin:miter;stroke:rgb(0%,80%,0%);stroke-opacity:1;stroke-miterlimit:10;" d="M 68.074219 184.136719 L 66.425781 169.945312 "/>
<path style="fill:none;stroke-width:1.2;stroke-linecap:butt;stroke-linejoin:miter;stroke:rgb(0%,0%,0%);stroke-opacity:1;stroke-miterlimit:10;" d="M 66.425781 169.945312 L 64.777344 155.75 "/>
<path style=" stroke:none;fill-rule:nonzero;fill:rgb(100%,100%,100%);fill-opacity:1;" d="M 63.074219 177.636719 L 74.074219 177.636719 L 74.074219 190.636719 L 63.074219 190.636719 Z M 63.074219 177.636719 "/>
<g style="fill:rgb(0%,80%,0%);fill-opacity:1;">
  <use xlink:href="#glyph0-1" x="63.074219" y="187.538086"/>
  <use xlink:href="#glyph0-2" x="70.525391" y="187.538086"/>
</g>
<path style="fill:none;stroke-width:1.2;stroke-linecap:butt;stroke-linejoin:miter;stroke:rgb(0%,0%,0%);stroke-opacity:1;stroke-miterlimit:10;" d="M 64.777344 155.75 L 38.546875 144.410156 "/>
<path style="fill:none;stroke-width:1.2;stroke-linecap:butt;stroke-linejoin:miter;stroke:rgb(0%,0%,0%);stroke-opacity:1;stroke-miterlimit:10;" d="M 64.824219 148.445312 L 43.835938 139.371094 "/>
<path style="fill:none;stroke-width:1.2;stroke-linecap:butt;stroke-linejoin:miter;stroke:rgb(0%,0%,0%);stroke-opacity:1;stroke-miterlimit:10;" d="M 87.714844 138.703125 L 64.777344 155.75 "/>
<path style="fill:none;stroke-width:1.2;stroke-linecap:butt;stroke-linejoin:miter;stroke:rgb(0%,0%,0%);stroke-opacity:1;stroke-miterlimit:10;" d="M 38.546875 144.410156 L 35.25 116.023438 "/>
<path style="fill:none;stroke-width:1.2;stroke-linecap:butt;stroke-linejoin:miter;stroke:rgb(0%,0%,0%);stroke-opacity:1;stroke-miterlimit:10;" d="M 35.25 116.023438 L 58.1875 98.976562 "/>
<path style="fill:none;stroke-width:1.2;stroke-linecap:butt;stroke-linejoin:miter;stroke:rgb(0%,0%,0%);stroke-opacity:1;stroke-miterlimit:10;" d="M 41.554688 119.714844 L 59.902344 106.078125 "/>
<path style="fill:none;stroke-width:1.2;stroke-linecap:butt;stroke-linejoin:miter;stroke:rgb(0%,0%,0%);stroke-opacity:1;stroke-miterlimit:10;" d="M 58.1875 98.976562 L 84.417969 110.3125 "/>
<path style="fill:none;stroke-width:1.2;stroke-linecap:butt;stroke-linejoin:miter;stroke:rgb(0%,0%,0%);stroke-opacity:1;stroke-miterlimit:10;" d="M 84.417969 110.3125 L 87.714844 138.703125 "/>
<path style="fill:none;stroke-width:1.2;stroke-linecap:butt;stroke-linejoin:miter;stroke:rgb(0%,0%,0%);stroke-opacity:1;stroke-miterlimit:10;" d="M 78.070312 113.929688 L 80.707031 136.636719 "/>
<path style="fill:none;stroke-width:1.2;stroke-linecap:butt;stroke-linejoin:miter;stroke:rgb(0%,0%,0%);stroke-opacity:1;stroke-miterlimit:10;" d="M 87.714844 138.703125 L 113.949219 150.039062 "/>
<path style="fill:none;stroke-width:1.2;stroke-linecap:butt;stroke-linejoin:miter;stroke:rgb(0%,0%,0%);stroke-opacity:1;stroke-miterlimit:10;" d="M 113.949219 150.039062 L 117.246094 178.429688 "/>
<path style="fill:none;stroke-width:1.2;stroke-linecap:butt;stroke-linejoin:miter;stroke:rgb(0%,0%,0%);stroke-opacity:1;stroke-miterlimit:10;" d="M 120.957031 152.101562 L 123.59375 174.8125 "/>
<path style="fill:none;stroke-width:1.2;stroke-linecap:butt;stroke-linejoin:miter;stroke:rgb(0%,0%,0%);stroke-opacity:1;stroke-miterlimit:10;" d="M 136.882812 132.992188 L 113.949219 150.039062 "/>
<path style="fill:none;stroke-width:1.2;stroke-linecap:butt;stroke-linejoin:miter;stroke:rgb(0%,0%,0%);stroke-opacity:1;stroke-miterlimit:10;" d="M 117.246094 178.429688 L 143.476562 189.765625 "/>
<path style="fill:none;stroke-width:1.2;stroke-linecap:butt;stroke-linejoin:miter;stroke:rgb(0%,0%,0%);stroke-opacity:1;stroke-miterlimit:10;" d="M 143.476562 189.765625 L 145.125 203.960938 "/>
<path style="fill:none;stroke-width:1.2;stroke-linecap:butt;stroke-linejoin:miter;stroke:rgb(100%,0%,0%);stroke-opacity:1;stroke-miterlimit:10;" d="M 145.125 203.960938 L 146.773438 218.152344 "/>
<path style="fill:none;stroke-width:1.2;stroke-linecap:butt;stroke-linejoin:miter;stroke:rgb(0%,0%,0%);stroke-opacity:1;stroke-miterlimit:10;" d="M 143.476562 189.765625 L 166.414062 172.71875 "/>
<path style="fill:none;stroke-width:1.2;stroke-linecap:butt;stroke-linejoin:miter;stroke:rgb(0%,0%,0%);stroke-opacity:1;stroke-miterlimit:10;" d="M 141.757812 182.664062 L 160.109375 169.027344 "/>
<path style=" stroke:none;fill-rule:nonzero;fill:rgb(100%,100%,100%);fill-opacity:1;" d="M 138.773438 211.652344 L 155.773438 211.652344 L 155.773438 224.652344 L 138.773438 224.652344 Z M 138.773438 211.652344 "/>
<g style="fill:rgb(100%,0%,0%);fill-opacity:1;">
  <use xlink:href="#glyph0-3" x="138.773438" y="221.553711"/>
  <use xlink:href="#glyph0-4" x="147.173828" y="221.553711"/>
</g>
<path style="fill:none;stroke-width:1.2;stroke-linecap:butt;stroke-linejoin:miter;stroke:rgb(0%,0%,0%);stroke-opacity:1;stroke-miterlimit:10;" d="M 166.414062 172.71875 L 163.117188 144.332031 "/>
<path style="fill:none;stroke-width:1.2;stroke-linecap:butt;stroke-linejoin:miter;stroke:rgb(0%,0%,0%);stroke-opacity:1;stroke-miterlimit:10;" d="M 163.117188 144.332031 L 174.585938 135.804688 "/>
<path style="fill:none;stroke-width:1.2;stroke-linecap:butt;stroke-linejoin:miter;stroke:rgb(0%,0%,100%);stroke-opacity:1;stroke-miterlimit:10;" d="M 174.585938 135.804688 L 186.050781 127.28125 "/>
<path style="fill:none;stroke-width:1.2;stroke-linecap:butt;stroke-linejoin:miter;stroke:rgb(0%,0%,0%);stroke-opacity:1;stroke-miterlimit:10;" d="M 136.882812 132.992188 L 163.117188 144.332031 "/>
<path style="fill:none;stroke-width:1.2;stroke-linecap:butt;stroke-linejoin:miter;stroke:rgb(0%,0%,0%);stroke-opacity:1;stroke-miterlimit:10;" d="M 136.839844 140.296875 L 157.824219 149.367188 "/>
<path style="fill:none;stroke-width:1.2;stroke-linecap:butt;stroke-linejoin:miter;stroke:rgb(0%,0%,100%);stroke-opacity:1;stroke-miterlimit:10;" d="M 186.050781 127.28125 L 199.167969 132.953125 "/>
<path style="fill:none;stroke-width:1.2;stroke-linecap:butt;stroke-linejoin:miter;stroke:rgb(0%,0%,0%);stroke-opacity:1;stroke-miterlimit:10;" d="M 199.167969 132.953125 L 212.285156 138.621094 "/>
<path style="fill:none;stroke-width:1.2;stroke-linecap:butt;stroke-linejoin:miter;stroke:rgb(0%,0%,100%);stroke-opacity:1;stroke-miterlimit:10;" d="M 186.050781 127.28125 L 184.402344 113.089844 "/>
<path style="fill:none;stroke-width:1.2;stroke-linecap:butt;stroke-linejoin:miter;stroke:rgb(0%,0%,0%);stroke-opacity:1;stroke-miterlimit:10;" d="M 184.402344 113.089844 L 182.753906 98.894531 "/>
<path style=" stroke:none;fill-rule:nonzero;fill:rgb(100%,100%,100%);fill-opacity:1;" d="M 182.050781 120.78125 L 190.050781 120.78125 L 190.050781 133.78125 L 182.050781 133.78125 Z M 182.050781 120.78125 "/>
<g style="fill:rgb(0%,0%,100%);fill-opacity:1;">
  <use xlink:href="#glyph0-5" x="182.050781" y="130.682617"/>
</g>
<path style="fill:none;stroke-width:1.2;stroke-linecap:butt;stroke-linejoin:miter;stroke:rgb(0%,0%,0%);stroke-opacity:1;stroke-miterlimit:10;" d="M 212.285156 138.621094 L 215.582031 167.007812 "/>
<path style="fill:none;stroke-width:1.2;stroke-linecap:butt;stroke-linejoin:miter;stroke:rgb(0%,0%,0%);stroke-opacity:1;stroke-miterlimit:10;" d="M 219.292969 140.683594 L 221.929688 163.394531 "/>
<path style="fill:none;stroke-width:1.2;stroke-linecap:butt;stroke-linejoin:miter;stroke:rgb(0%,0%,0%);stroke-opacity:1;stroke-miterlimit:10;" d="M 235.222656 121.570312 L 212.285156 138.621094 "/>
<path style="fill:none;stroke-width:1.2;stroke-linecap:butt;stroke-linejoin:miter;stroke:rgb(0%,0%,0%);stroke-opacity:1;stroke-miterlimit:10;" d="M 215.582031 167.007812 L 204.113281 175.53125 "/>
<path style="fill:none;stroke-width:1.2;stroke-linecap:butt;stroke-linejoin:miter;stroke:rgb(0%,80%,0%);stroke-opacity:1;stroke-miterlimit:10;" d="M 204.113281 175.53125 L 192.644531 184.058594 "/>
<path style="fill:none;stroke-width:1.2;stroke-linecap:butt;stroke-linejoin:miter;stroke:rgb(0%,0%,0%);stroke-opacity:1;stroke-miterlimit:10;" d="M 215.582031 167.007812 L 241.8125 178.347656 "/>
<path style=" stroke:none;fill-rule:nonzero;fill:rgb(100%,100%,100%);fill-opacity:1;" d="M 181.644531 177.558594 L 192.644531 177.558594 L 192.644531 190.558594 L 181.644531 190.558594 Z M 181.644531 177.558594 "/>
<g style="fill:rgb(0%,80%,0%);fill-opacity:1;">
  <use xlink:href="#glyph0-1" x="181.644531" y="187.459961"/>
  <use xlink:href="#glyph0-2" x="189.095703" y="187.459961"/>
</g>
<path style="fill:none;stroke-width:1.2;stroke-linecap:butt;stroke-linejoin:miter;stroke:rgb(0%,0%,0%);stroke-opacity:1;stroke-miterlimit:10;" d="M 241.8125 178.347656 L 264.75 161.296875 "/>
<path style="fill:none;stroke-width:1.2;stroke-linecap:butt;stroke-linejoin:miter;stroke:rgb(0%,0%,0%);stroke-opacity:1;stroke-miterlimit:10;" d="M 240.097656 171.246094 L 258.445312 157.605469 "/>
<path style="fill:none;stroke-width:1.2;stroke-linecap:butt;stroke-linejoin:miter;stroke:rgb(0%,0%,0%);stroke-opacity:1;stroke-miterlimit:10;" d="M 264.75 161.296875 L 261.453125 132.910156 "/>
<path style="fill:none;stroke-width:1.2;stroke-linecap:butt;stroke-linejoin:miter;stroke:rgb(0%,0%,0%);stroke-opacity:1;stroke-miterlimit:10;" d="M 261.453125 132.910156 L 235.222656 121.570312 "/>
<path style="fill:none;stroke-width:1.2;stroke-linecap:butt;stroke-linejoin:miter;stroke:rgb(0%,0%,0%);stroke-opacity:1;stroke-miterlimit:10;" d="M 256.164062 137.949219 L 235.175781 128.878906 "/>
<path style="fill:none;stroke-width:1.2;stroke-linecap:butt;stroke-linejoin:miter;stroke:rgb(0%,0%,0%);stroke-opacity:1;stroke-miterlimit:10;" d="M 235.222656 121.570312 L 233.574219 107.378906 "/>
<path style="fill:none;stroke-width:1.2;stroke-linecap:butt;stroke-linejoin:miter;stroke:rgb(0%,80%,0%);stroke-opacity:1;stroke-miterlimit:10;" d="M 233.574219 107.378906 L 231.925781 93.183594 "/>
<path style=" stroke:none;fill-rule:nonzero;fill:rgb(100%,100%,100%);fill-opacity:1;" d="M 226.925781 86.683594 L 237.925781 86.683594 L 237.925781 99.683594 L 226.925781 99.683594 Z M 226.925781 86.683594 "/>
<g style="fill:rgb(0%,80%,0%);fill-opacity:1;">
  <use xlink:href="#glyph0-1" x="226.925781" y="96.584961"/>
  <use xlink:href="#glyph0-2" x="234.376953" y="96.584961"/>
</g>
<path style="fill:none;stroke-width:1.2;stroke-linecap:butt;stroke-linejoin:miter;stroke:rgb(0%,0%,0%);stroke-opacity:1;stroke-miterlimit:10;" d="M 184.761719 101.59375 L 196.230469 93.070312 "/>
<path style="fill:none;stroke-width:1.2;stroke-linecap:butt;stroke-linejoin:miter;stroke:rgb(100%,0%,0%);stroke-opacity:1;stroke-miterlimit:10;" d="M 196.230469 93.070312 L 207.699219 84.542969 "/>
<path style="fill:none;stroke-width:1.2;stroke-linecap:butt;stroke-linejoin:miter;stroke:rgb(0%,0%,0%);stroke-opacity:1;stroke-miterlimit:10;" d="M 180.75 96.195312 L 192.21875 87.671875 "/>
<path style="fill:none;stroke-width:1.2;stroke-linecap:butt;stroke-linejoin:miter;stroke:rgb(100%,0%,0%);stroke-opacity:1;stroke-miterlimit:10;" d="M 192.21875 87.671875 L 203.6875 79.148438 "/>
<path style="fill:none;stroke-width:1.2;stroke-linecap:butt;stroke-linejoin:miter;stroke:rgb(0%,0%,0%);stroke-opacity:1;stroke-miterlimit:10;" d="M 182.753906 98.894531 L 169.640625 93.226562 "/>
<path style="fill:none;stroke-width:1.2;stroke-linecap:butt;stroke-linejoin:miter;stroke:rgb(0%,0%,100%);stroke-opacity:1;stroke-miterlimit:10;" d="M 169.640625 93.226562 L 156.523438 87.554688 "/>
<path style=" stroke:none;fill-rule:nonzero;fill:rgb(100%,100%,100%);fill-opacity:1;" d="M 201.691406 75.347656 L 210.691406 75.347656 L 210.691406 88.347656 L 201.691406 88.347656 Z M 201.691406 75.347656 "/>
<g style="fill:rgb(100%,0%,0%);fill-opacity:1;">
  <use xlink:href="#glyph0-3" x="201.691406" y="85.249023"/>
</g>
<path style="fill:none;stroke-width:1.2;stroke-linecap:butt;stroke-linejoin:miter;stroke:rgb(0%,0%,100%);stroke-opacity:1;stroke-miterlimit:10;" d="M 156.523438 87.554688 L 145.054688 96.078125 "/>
<path style="fill:none;stroke-width:1.2;stroke-linecap:butt;stroke-linejoin:miter;stroke:rgb(0%,0%,0%);stroke-opacity:1;stroke-miterlimit:10;" d="M 145.054688 96.078125 L 133.585938 104.605469 "/>
<path style=" stroke:none;fill-rule:nonzero;fill:rgb(100%,100%,100%);fill-opacity:1;" d="M 148.523438 81.054688 L 165.523438 81.054688 L 165.523438 94.054688 L 148.523438 94.054688 Z M 148.523438 81.054688 "/>
<g style="fill:rgb(0%,0%,100%);fill-opacity:1;">
  <use xlink:href="#glyph0-5" x="148.523438" y="90.956055"/>
  <use xlink:href="#glyph0-4" x="156.506836" y="90.956055"/>
</g>
<path style="fill:none;stroke-width:1.2;stroke-linecap:butt;stroke-linejoin:miter;stroke:rgb(0%,0%,0%);stroke-opacity:1;stroke-miterlimit:10;" d="M 133.585938 104.605469 L 136.882812 132.992188 "/>
</g>
</svg>

<svg xmlns="http://www.w3.org/2000/svg" xmlns:xlink="http://www.w3.org/1999/xlink" width="300pt" height="300pt" viewBox="0 0 300 300"><defs><symbol overflow="visible"><path d="M.547 1.938V-7.75h5.5v9.688zm.625-.61h4.266v-8.47H1.171zm0 0"/></symbol><symbol overflow="visible" id="a"><path d="M7.078-7.406v1.156c-.367-.344-.758-.598-1.172-.766-.406-.164-.843-.25-1.312-.25-.918 0-1.62.282-2.11.844-.48.555-.718 1.36-.718 2.422 0 1.055.238 1.86.718 2.422.49.562 1.192.844 2.11.844.468 0 .906-.082 1.312-.25.414-.164.805-.422 1.172-.766v1.125c-.375.262-.777.46-1.203.594-.418.124-.867.186-1.344.186-1.21 0-2.163-.367-2.858-1.11C.972-1.703.625-2.718.625-4c0-1.29.348-2.305 1.047-3.047.695-.75 1.648-1.125 2.86-1.125.476 0 .93.07 1.36.203.424.126.82.314 1.186.564zm0 0"/></symbol><symbol overflow="visible" id="b"><path d="M1.03-8.36h1V0h-1zm0 0"/></symbol><symbol overflow="visible" id="c"><path d="M4.328-7.28c-.78 0-1.406.296-1.875.89-.46.585-.687 1.382-.687 2.39 0 1.012.226 1.813.687 2.406.47.586 1.094.875 1.875.875.79 0 1.414-.288 1.875-.874.457-.593.688-1.394.688-2.406 0-1.008-.23-1.805-.687-2.39-.46-.594-1.086-.89-1.875-.89zm0-.892c1.125 0 2.024.383 2.703 1.14C7.708-6.28 8.048-5.27 8.048-4c0 1.262-.34 2.273-1.016 3.03C6.353-.22 5.454.157 4.33.157S2.3-.22 1.625-.97c-.668-.75-1-1.757-1-3.03 0-1.27.332-2.28 1-3.03.676-.76 1.578-1.142 2.703-1.142zm0 0"/></symbol><symbol overflow="visible" id="d"><path d="M1.078-8.016h1.094v3.282H6.11v-3.282h1.077V0H6.11v-3.813H2.17V0H1.078zm0 0"/></symbol><symbol overflow="visible" id="e"><path d="M1.078-8.016h1.47l3.546 6.704v-6.704h1.062V0H5.688L2.124-6.703V0H1.078zm0 0"/></symbol></defs><g><path fill="#fff" d="M0 0h300v300H0z"/><path d="M68.074 184.137l-1.648-14.192" stroke-width="1.2" stroke="#0c0" stroke-miterlimit="10" fill="none"/><path d="M66.426 169.945l-1.65-14.195" stroke-width="1.2" stroke="#000" stroke-miterlimit="10" fill="none"/><path d="M63.074 177.637h11v13h-11zm0 0" fill="#fff"/><g fill="#0c0"><use xlink:href="#a" x="63.074" y="187.538"/><use xlink:href="#b" x="70.525" y="187.538"/></g><path d="M64.777 155.75l-26.23-11.34M64.824 148.445l-20.988-9.074M87.715 138.703L64.777 155.75M38.547 144.41l-3.297-28.387M35.25 116.023l22.938-17.046M41.555 119.715l18.347-13.637M58.188 98.977l26.23 11.335M84.418 110.313l3.297 28.39M78.07 113.93l2.637 22.707M87.715 138.703l26.234 11.336M113.95 150.04l3.296 28.39M120.957 152.102l2.637 22.71M136.883 132.992L113.95 150.04M117.246 178.43l26.23 11.336M143.477 189.766l1.648 14.195" stroke-width="1.2" stroke="#000" stroke-miterlimit="10" fill="none"/><path d="M145.125 203.96l1.648 14.192" stroke-width="1.2" stroke="#f00" stroke-miterlimit="10" fill="none"/><path d="M143.477 189.766l22.937-17.047M141.758 182.664l18.35-13.637" stroke-width="1.2" stroke="#000" stroke-miterlimit="10" fill="none"/><path d="M138.773 211.652h17v13h-17zm0 0" fill="#fff"/><g fill="#f00"><use xlink:href="#c" x="138.773" y="221.554"/><use xlink:href="#d" x="147.174" y="221.554"/></g><path d="M166.414 172.72l-3.297-28.388M163.117 144.332l11.47-8.527" stroke-width="1.2" stroke="#000" stroke-miterlimit="10" fill="none"/><path d="M174.586 135.805l11.465-8.524" stroke-width="1.2" stroke="#00f" stroke-miterlimit="10" fill="none"/><path d="M136.883 132.992l26.234 11.34M136.84 140.297l20.984 9.07" stroke-width="1.2" stroke="#000" stroke-miterlimit="10" fill="none"/><path d="M186.05 127.28l13.118 5.673" stroke-width="1.2" stroke="#00f" stroke-miterlimit="10" fill="none"/><path d="M199.168 132.953l13.117 5.668" stroke-width="1.2" stroke="#000" stroke-miterlimit="10" fill="none"/><path d="M186.05 127.28l-1.648-14.19" stroke-width="1.2" stroke="#00f" stroke-miterlimit="10" fill="none"/><path d="M184.402 113.09l-1.648-14.195" stroke-width="1.2" stroke="#000" stroke-miterlimit="10" fill="none"/><path d="M182.05 120.78h8v13h-8zm0 0" fill="#fff"/><use xlink:href="#e" x="182.051" y="130.683" fill="#00f"/><path d="M212.285 138.62l3.297 28.388M219.293 140.684l2.637 22.71M235.223 121.57l-22.938 17.05M215.582 167.008l-11.47 8.523" stroke-width="1.2" stroke="#000" stroke-miterlimit="10" fill="none"/><path d="M204.113 175.53l-11.468 8.53" stroke-width="1.2" stroke="#0c0" stroke-miterlimit="10" fill="none"/><path d="M215.582 167.008l26.23 11.34" stroke-width="1.2" stroke="#000" stroke-miterlimit="10" fill="none"/><path d="M181.645 177.56h11v13h-11zm0 0" fill="#fff"/><g fill="#0c0"><use xlink:href="#a" x="181.645" y="187.46"/><use xlink:href="#b" x="189.096" y="187.46"/></g><path d="M241.813 178.348l22.937-17.05M240.098 171.246l18.347-13.64M264.75 161.297l-3.297-28.387M261.453 132.91l-26.23-11.34M256.164 137.95l-20.988-9.07M235.223 121.57l-1.65-14.19" stroke-width="1.2" stroke="#000" stroke-miterlimit="10" fill="none"/><path d="M233.574 107.38l-1.648-14.196" stroke-width="1.2" stroke="#0c0" stroke-miterlimit="10" fill="none"/><path d="M226.926 86.684h11v13h-11zm0 0" fill="#fff"/><g fill="#0c0"><use xlink:href="#a" x="226.926" y="96.585"/><use xlink:href="#b" x="234.377" y="96.585"/></g><path d="M184.762 101.594l11.468-8.524" stroke-width="1.2" stroke="#000" stroke-miterlimit="10" fill="none"/><path d="M196.23 93.07l11.47-8.527" stroke-width="1.2" stroke="#f00" stroke-miterlimit="10" fill="none"/><path d="M180.75 96.195l11.47-8.523" stroke-width="1.2" stroke="#000" stroke-miterlimit="10" fill="none"/><path d="M192.22 87.672l11.468-8.524" stroke-width="1.2" stroke="#f00" stroke-miterlimit="10" fill="none"/><path d="M182.754 98.895l-13.113-5.668" stroke-width="1.2" stroke="#000" stroke-miterlimit="10" fill="none"/><path d="M169.64 93.227l-13.117-5.672" stroke-width="1.2" stroke="#00f" stroke-miterlimit="10" fill="none"/><path d="M201.69 75.348h9v13h-9zm0 0" fill="#fff"/><use xlink:href="#c" x="201.691" y="85.249" fill="#f00"/><path d="M156.523 87.555l-11.468 8.523" stroke-width="1.2" stroke="#00f" stroke-miterlimit="10" fill="none"/><path d="M145.055 96.078l-11.47 8.527" stroke-width="1.2" stroke="#000" stroke-miterlimit="10" fill="none"/><path d="M148.523 81.055h17v13h-17zm0 0" fill="#fff"/><g fill="#00f"><use xlink:href="#e" x="148.523" y="90.956"/><use xlink:href="#d" x="156.507" y="90.956"/></g><path d="M133.586 104.605l3.297 28.387" stroke-width="1.2" stroke="#000" stroke-miterlimit="10" fill="none"/></g></svg>
